!!!OTL: Uebers Loaterl, da steig i net aufi, da Gangsteig der is ma z' hoch drobn
!!!ARE: Europa, Mitteleuropa, Deutschland, Bayernalpe
!!!SCT: D0074
!!!YEM: Copyright 1995, estate of Helmut Schaffrath.
**kern
*ICvox
*Ivox
*M3/4
*k[b-]
*F:
{8a
8a
=1
8a
8cc
4.ff
8a
=2
4.cc
8b-
4a
=3
8cc
8g
4b-
8r}
{8b-
=4
8b-
8cc
4.ee
8b-
=5
4dd
4cc
4b-
=6
4a
4r
8r}
{8a
=7
8a
8cc
4.ff
8a
=8
4cc
4b-
4a
=9
8cc
8g
4.b-}
{8b-
=10
8b-
8cc
4.ee
8b-
=11
4dd
4cc
4b-
=12
4a
4r
4r}
=13
{8g
16g
16g
4g
8c
8r
=14
8a
8ff
4cc
8ff
8cc
=15
4.ee
8dd
4b-
=16
4a
4r
4r}
=17
{8g
16g
16g
4g
8c
8r
=18
8a
8ff
4cc
8ff
8cc
=19
4.ee
8dd
4b-
=20
4a
4r}
{8cc
8cc
=21
4.dd
8cc
4a
=22
4.cc
8b-
4g
=23
4.ee
8dd
4b-
=24
4.dd
8cc
4a}
=25
{4.dd
8cc
4a
=26
4.cc
8b-
4g
=27
4.ee
8dd
8cc
8b-
=28
4a
4r}
==
!!!AGN: Kilt - Lied
!! Unterstimme vorwiegend in Terzen; Verzierung; Inzipit = Variante
!!!ONB: ESAC (Essen Associative Code) Database: DVA
!!!AMT: simple triple
!!!AIN: vox
!!!EED: Helmut Schaffrath
!!!EEV: 1.0
*-
